X:38
T: Russian Freilach (Bm)
O:klezmer
Z: John Chambers <jc@trillian.mit.edu>
M: 2/4
L: 1/8
K: Bm
|: "Bm"B2 FB | FB FB | d2 Bd | Bd Bd \
| f2 df | "Em"e2 ce |1 "Bm"d2 Bd | "F7"c2 f2 :|2 "F7"d2 cB | "Bm"B4 |]
[| "Bm"zf ga | gf ed | zf ga | gf ed | zf ga | "B7"ba gf | "Em"e2 gf | e4 |
| "A7"ze fg | ag fe | "D"d2 fe | d3 d | dA Ad | "C/Am"d=c cB | "Bm"B4- | B4 |]





